X:288
T:Under His Wings
%%stretchlast false
M:6/4
L:1/4
K:Bb clef=C1
"^I"[B,,F,B,D] "^ii"[B,,F,CE] "^i°7"[B,,G,_D=E] "^I"[B,,B,DF]2 [B,,B,DF]/ [B,,B,DF]/ | [B,,B,DF] "^IV²"[B,,B,EG] "^I"[B,,F,B,D] "^V²"[C,F,A,F] "^V7²"[C,F,A,E]2 | "^V"[F,,F,A,C] "^I²"[F,,F,B,D] "^v7"[F,,F,CE] "^IV"[F,,F,EG] [F,,F,DF] "^iii¹"[F,,F,DF] | [F,,F,DF] "^V"[F,,F,A,C] "^V+"[F,,F,A,_D] "^I"[B,,F,B,D]3 | [B,,F,B,D] "^ii"[B,,F,CE] "^i°7"[B,,G,_D=E] "^I"[B,,B,DF] [B,,B,DF] "^I¹"[D,B,FB] | "^ii7¹"[E,B,Gc] "^IV"[E,B,GB] [E,B,EG] "^IV²"[B,,B,EG] "^I"[B,,B,DF]2 | "^IV"[E,B,EG] "^vii°"[E,A,EA] "^IVmaj7"[E,G,DB] "^I"[B,,F,DB] [B,,B,DF] [B,,F,B,D] | "^iii¹"[F,,F,DF] "^v7"[F,,F,CE] "^V7"[F,,E,A,C] "^I"[B,,D,B,]3 | [B,,B,DF] [B,,B,D] [B,,B,DF] [B,,F,DB]3 | "^V7"[F,EA] "^ii"[F,CEG] "^V7"[F,,CEA] "^I"[B,,F,DB]3 | [B,,F,DB] [B,,B,DF] [B,,B,D] "^IV²"[B,,B,EG] "^I"[B,,B,DF] "^I¹"[D,F,B,D] | "^I²"[F,B,D] "^V"[F,A,C]4 "^i"[B,,B,] | "^I"[B,,D,B,] [B,,F,D] [B,,B,DF] [B,,F,DB] "^I¹"[D,F,FB] "^vii°"[E,B,EA] | "^ii¹"[E,G,Ec] "^IV"[E,,G,EB] "^vi¹"[B,,B,DG] "^I"[B,,B,DF]2 "^iv"[E,B,EF] | "^ii7"[C,B,EG] "^Imaj7"[B,,F,DA] "^I"[B,,F,DB] "^i"[B,,B,F] "^I"[B,,F,D] "^Imaj7²"[F,,D,A,B,] | "^V7"[F,,E,A,C]2 "^ii7³"[B,,E,B,C] "^I"[B,,D,B,]2 |]
